X:1
T:Title
%%score 1 { 2 | 3 }
L:1/8
M:4/4
K:G
V:1 treble nm="Bright Piano, Staff"
V:2 bass nm="E.Piano 2, Staff-1"
V:3 bass 
V:1
 D2 [GB]2 [Fd]2 [Gd]2 | [Ac]2 [GB]2 [FA]2 [EG]2 | [DG]2 [EA]2 [DB]2 [Cc]2 | [CE]2 [CF]4 [B,G]2 | %4
w: By~Arthur~Seymour~Sullivan * * *||||
 D2 [GB]2 [Fd]2 [Gd]2 | [Ac]2 [GB]2 [FA]2 G2 | [GB]2 [GB]2 [GA]2 [GB]2 | [G^c]2 [Ge]4 [Fd]2 | %8
w: ||||
 [FA]2 [FA]2- [FA]/ z/ [FA] [Fd]2 | [FB]2 [EA]2 [E^G]2 [EB]2 | E2 [Ec]2 [Ec]2 [Gd]2 | %11
w: |||
 [Gc]d [Ge]4 [Ge]2 | [Ec]d [Ge]2 [Ae]2 [Ad]2 | G2 [Gc]2 [Fc]2 [GB]2 | [DG]2 [EA]2 [DB]2 [Cc]2 | %15
w: ||||
 E2 [DF]4 [DG]2 |] %16
w: |
V:2
 D,2 D2 D2 D2 | D2 D2 C2 B,2 | G,2 E,2 B,,E, E,2 | A,2 A,4 G,2 | D,2[K:treble] D2 D2 D2 | %5
 D2 D2 C2 B,2 | D2 ^C2 C2 D2 | E2 ^C4 D2 | D2 D2- D/ z/ D D2 | D2[K:bass] B,2- B,/ z/ A, ^G,2 | %10
 ^G,2 A,2 A,2 B,2 | A,B,[K:treble] C4 C2 | C2 C2 C2 B,2 | CD E2 D2[K:bass] G,2 | %14
 G,2 E,2 B,,E, E,2 | C2 C4 B,2 |] %16
V:3
 z2 G,2 A,2 B,2 | F,2 G,2 D,2 E,2 | B,,2 C,2 z2 A,,2 | A,,2 D,4 G,,2 | z2 G,2 C2 B,2 | %5
 F,2 G,2 D,2 E,2 | E,2 A,,2 A,,2 A,2 | A,2 A,4 D,2 | D,2 D,2- D,/ z/ D, B,,2 | %9
 D,2 E,2- E,/ z/ F, z2 | E,2 z2 z2 G,2 | .G,2 z2 z2 C,2 | C,2 z2 F,2 z2 | .B,2 A,2 D,2 E,2 | %14
 z2 C,2 z2 A,,2 | A,,2 D,4 G,,2 |] %16

